X:4609
T:Durmete neu
R:Aada
C:Tradicional
S:Msica Tradicional Asturiana, (C) Tello & Tito. Asturies, 2001.
S:http://pagina.de/MusTradAst <telloytito@asturies.org>
A:Asturies
Z:Asturias, canciones
M:2/4
L:1/8
Q:1/4=90
K:D
|: B2 B2|B2 ^AB|c2 c2|^Ac c{d}c|B4 :|
|: (c3/2d/4c/4) (A3/2B/4A/4)|FE FG|B3/2(c/4B/4) A3/2(B/4A/4)|F4 :||
